flaticon/army-badges/explosive.svg

<svg xmlns="http://www.w3.org/2000/svg" width="32" height="32" viewBox="0 0 24 24">
    <path d="M 12 8 C 9.359375 8 7.199219 10.160156 7.199219 12.800781 C 7.199219 15.441406 9.359375 17.601562 12 17.601562 C 14.640625 17.601562 16.800781 15.480469 16.800781 12.800781 C 16.800781 10.160156 14.640625 8 12 8 Z M 12 16.800781 C 9.800781 16.800781 8 15 8 12.800781 C 8 10.601562 9.800781 8.800781 12 8.800781 C 14.199219 8.800781 16 10.601562 16 12.800781 C 16 15 14.199219 16.800781 12 16.800781 Z M 12 16.800781"/>
    <path d="M 21.199219 8.398438 L 21.199219 5.601562 C 21.199219 5.359375 21.039062 5.199219 20.800781 5.199219 L 20.800781 3.601562 C 20.800781 2.921875 20.28125 2.398438 19.601562 2.398438 L 18.800781 2.398438 L 18.800781 1.921875 C 18.800781 1.320312 18.28125 0.800781 17.679688 0.800781 L 17.519531 0.800781 C 16.921875 0.800781 16.398438 1.320312 16.398438 1.921875 L 16.398438 2.398438 L 15.601562 2.398438 C 15.441406 2.398438 15.292969 2.429688 15.160156 2.480469 C 15.023438 1.964844 14.566406 1.601562 14 1.601562 L 13.199219 1.601562 L 13.199219 1.121094 C 13.199219 0.519531 12.679688 0 12.078125 0 L 11.921875 0 C 11.320312 0 10.800781 0.519531 10.800781 1.121094 L 10.800781 1.601562 L 10 1.601562 C 9.433594 1.601562 8.976562 1.964844 8.839844 2.480469 C 8.707031 2.429688 8.558594 2.398438 8.398438 2.398438 L 7.601562 2.398438 L 7.601562 1.921875 C 7.601562 1.320312 7.078125 0.800781 6.480469 0.800781 L 6.320312 0.800781 C 5.71875 0.800781 5.199219 1.320312 5.199219 1.921875 L 5.199219 2.398438 L 4.398438 2.398438 C 3.71875 2.398438 3.199219 2.921875 3.199219 3.601562 L 3.199219 5.199219 C 2.960938 5.199219 2.800781 5.359375 2.800781 5.601562 L 2.800781 8.398438 C 2.800781 8.640625 2.960938 8.800781 3.199219 8.800781 L 3.199219 16.800781 C 2.960938 16.800781 2.800781 16.960938 2.800781 17.199219 L 2.800781 20 C 2.800781 20.238281 2.960938 20.398438 3.199219 20.398438 L 3.199219 22.800781 C 3.199219 23.480469 3.71875 24 4.398438 24 L 8.398438 24 C 8.710938 24 8.988281 23.890625 9.199219 23.707031 C 9.410156 23.890625 9.6875 24 10 24 L 14 24 C 14.3125 24 14.589844 23.890625 14.800781 23.707031 C 15.011719 23.890625 15.289062 24 15.601562 24 L 19.601562 24 C 20.28125 24 20.800781 23.480469 20.800781 22.800781 L 20.800781 20.398438 C 21.039062 20.398438 21.199219 20.238281 21.199219 20 L 21.199219 17.199219 C 21.199219 16.960938 21.039062 16.800781 20.800781 16.800781 L 20.800781 8.800781 C 21.039062 8.800781 21.199219 8.640625 21.199219 8.398438 Z M 20.398438 19.601562 L 3.601562 19.601562 L 3.601562 17.601562 L 7.761719 17.601562 C 8.789062 18.492188 10.023438 19.03125 11.339844 19.164062 C 11.34375 19.167969 11.351562 19.167969 11.359375 19.167969 C 11.402344 19.171875 11.445312 19.175781 11.488281 19.179688 C 11.5 19.179688 11.511719 19.179688 11.523438 19.183594 C 11.5625 19.183594 11.601562 19.1875 11.640625 19.191406 C 11.65625 19.191406 11.671875 19.191406 11.683594 19.191406 C 11.722656 19.195312 11.761719 19.195312 11.800781 19.195312 C 11.816406 19.195312 11.828125 19.199219 11.84375 19.199219 C 11.894531 19.199219 11.949219 19.199219 12 19.199219 C 12.050781 19.199219 12.105469 19.199219 12.15625 19.199219 C 12.171875 19.199219 12.183594 19.195312 12.199219 19.195312 C 12.238281 19.195312 12.277344 19.195312 12.316406 19.191406 C 12.328125 19.191406 12.339844 19.191406 12.351562 19.191406 C 12.394531 19.1875 12.4375 19.183594 12.480469 19.183594 C 12.488281 19.179688 12.496094 19.179688 12.5 19.179688 C 13.882812 19.074219 15.203125 18.527344 16.238281 17.601562 L 20.398438 17.601562 Z M 12.714844 18.355469 C 12.710938 18.355469 12.710938 18.355469 12.707031 18.355469 C 12.667969 18.359375 12.625 18.363281 12.585938 18.367188 C 12.578125 18.371094 12.566406 18.371094 12.558594 18.371094 C 12.523438 18.375 12.492188 18.378906 12.457031 18.382812 C 12.441406 18.382812 12.429688 18.382812 12.417969 18.382812 C 12.386719 18.386719 12.351562 18.386719 12.320312 18.390625 C 12.308594 18.390625 12.292969 18.390625 12.277344 18.394531 C 12.246094 18.394531 12.210938 18.394531 12.179688 18.398438 C 12.167969 18.398438 12.152344 18.398438 12.136719 18.398438 C 12.09375 18.398438 12.046875 18.398438 12 18.398438 C 11.953125 18.398438 11.90625 18.398438 11.863281 18.398438 C 11.847656 18.398438 11.832031 18.398438 11.820312 18.398438 C 11.789062 18.394531 11.753906 18.394531 11.722656 18.394531 C 11.707031 18.390625 11.691406 18.390625 11.679688 18.390625 C 11.648438 18.386719 11.613281 18.386719 11.582031 18.382812 C 11.570312 18.382812 11.558594 18.382812 11.542969 18.382812 C 11.507812 18.378906 11.476562 18.375 11.441406 18.371094 C 11.433594 18.371094 11.421875 18.371094 11.414062 18.367188 C 11.375 18.363281 11.332031 18.359375 11.292969 18.355469 C 11.289062 18.355469 11.289062 18.355469 11.285156 18.355469 C 8.585938 18.007812 6.472656 15.71875 6.402344 12.945312 C 6.402344 12.894531 6.398438 12.847656 6.398438 12.800781 C 6.398438 12.75 6.402344 12.703125 6.402344 12.65625 C 6.472656 9.882812 8.585938 7.59375 11.285156 7.246094 C 11.289062 7.246094 11.289062 7.246094 11.292969 7.246094 C 11.332031 7.238281 11.375 7.234375 11.414062 7.230469 C 11.421875 7.230469 11.433594 7.230469 11.441406 7.226562 C 11.476562 7.222656 11.507812 7.222656 11.542969 7.21875 C 11.558594 7.21875 11.570312 7.214844 11.582031 7.214844 C 11.613281 7.214844 11.648438 7.210938 11.679688 7.210938 C 11.691406 7.207031 11.707031 7.207031 11.722656 7.207031 C 11.753906 7.207031 11.789062 7.203125 11.820312 7.203125 C 11.832031 7.203125 11.847656 7.203125 11.863281 7.203125 C 11.90625 7.199219 11.953125 7.199219 12 7.199219 C 12.046875 7.199219 12.09375 7.199219 12.136719 7.203125 C 12.152344 7.203125 12.167969 7.203125 12.179688 7.203125 C 12.210938 7.203125 12.246094 7.207031 12.277344 7.207031 C 12.292969 7.207031 12.308594 7.207031 12.320312 7.210938 C 12.351562 7.210938 12.386719 7.214844 12.417969 7.214844 C 12.429688 7.214844 12.441406 7.21875 12.457031 7.21875 C 12.492188 7.222656 12.523438 7.222656 12.558594 7.226562 C 12.566406 7.230469 12.578125 7.230469 12.585938 7.230469 C 12.625 7.234375 12.667969 7.238281 12.707031 7.246094 C 12.710938 7.246094 12.710938 7.246094 12.714844 7.246094 C 15.414062 7.59375 17.527344 9.882812 17.597656 12.65625 C 17.597656 12.703125 17.601562 12.75 17.601562 12.800781 C 17.601562 15.636719 15.460938 18 12.714844 18.355469 Z M 16.238281 8 C 16.113281 7.894531 15.984375 7.796875 15.855469 7.699219 C 14.816406 6.914062 13.535156 6.433594 12.152344 6.402344 C 12.101562 6.402344 12.050781 6.398438 12 6.398438 C 11.949219 6.398438 11.894531 6.402344 11.84375 6.402344 C 11.828125 6.402344 11.816406 6.402344 11.800781 6.402344 C 11.761719 6.40625 11.722656 6.40625 11.683594 6.40625 C 11.671875 6.410156 11.660156 6.410156 11.648438 6.410156 C 11.605469 6.414062 11.558594 6.414062 11.519531 6.417969 C 11.511719 6.417969 11.503906 6.417969 11.5 6.417969 C 10.117188 6.527344 8.796875 7.070312 7.761719 8 L 3.601562 8 L 3.601562 6 L 20.398438 6 L 20.398438 8 Z M 17.199219 1.921875 C 17.199219 1.761719 17.359375 1.601562 17.519531 1.601562 L 17.679688 1.601562 C 17.839844 1.601562 18 1.761719 18 1.921875 L 18 2.398438 L 17.199219 2.398438 Z M 15.601562 3.199219 L 19.601562 3.199219 C 19.839844 3.199219 20 3.359375 20 3.601562 L 20 5.199219 L 15.199219 5.199219 L 15.199219 3.601562 C 15.199219 3.359375 15.359375 3.199219 15.601562 3.199219 Z M 11.601562 1.121094 C 11.601562 0.960938 11.761719 0.800781 11.921875 0.800781 L 12.078125 0.800781 C 12.238281 0.800781 12.398438 0.960938 12.398438 1.121094 L 12.398438 1.601562 L 11.601562 1.601562 Z M 9.601562 2.800781 C 9.601562 2.558594 9.761719 2.398438 10 2.398438 L 14 2.398438 C 14.238281 2.398438 14.398438 2.558594 14.398438 2.800781 L 14.398438 5.199219 L 9.601562 5.199219 Z M 6 1.921875 C 6 1.761719 6.160156 1.601562 6.320312 1.601562 L 6.480469 1.601562 C 6.640625 1.601562 6.800781 1.761719 6.800781 1.921875 L 6.800781 2.398438 L 6 2.398438 Z M 4 3.601562 C 4 3.398438 4.160156 3.199219 4.398438 3.199219 L 8.398438 3.199219 C 8.640625 3.199219 8.800781 3.359375 8.800781 3.601562 L 8.800781 5.199219 L 4 5.199219 Z M 4 8.800781 L 7 8.800781 C 6.800781 9.054688 6.621094 9.324219 6.460938 9.605469 C 5.957031 10.472656 5.652344 11.464844 5.605469 12.523438 C 5.605469 12.53125 5.605469 12.539062 5.605469 12.546875 C 5.605469 12.582031 5.601562 12.621094 5.601562 12.65625 C 5.601562 12.703125 5.601562 12.75 5.601562 12.800781 C 5.601562 12.851562 5.601562 12.902344 5.601562 12.949219 C 5.601562 12.972656 5.601562 12.992188 5.605469 13.015625 C 5.605469 13.042969 5.605469 13.070312 5.605469 13.097656 C 5.609375 13.125 5.609375 13.15625 5.613281 13.183594 C 5.613281 13.199219 5.613281 13.21875 5.613281 13.234375 C 5.617188 13.273438 5.621094 13.308594 5.625 13.34375 C 5.625 13.351562 5.625 13.355469 5.625 13.359375 C 5.691406 14.121094 5.894531 14.847656 6.207031 15.507812 C 6.214844 15.527344 6.222656 15.546875 6.230469 15.566406 C 6.234375 15.566406 6.234375 15.570312 6.238281 15.574219 C 6.445312 16.007812 6.703125 16.421875 7 16.800781 L 4 16.800781 Z M 8.398438 23.199219 L 4.398438 23.199219 C 4.160156 23.199219 4 23.039062 4 22.800781 L 4 20.398438 L 8.800781 20.398438 L 8.800781 22.800781 C 8.800781 23.039062 8.640625 23.199219 8.398438 23.199219 Z M 14 23.199219 L 10 23.199219 C 9.761719 23.199219 9.601562 23.039062 9.601562 22.800781 L 9.601562 20.398438 L 14.398438 20.398438 L 14.398438 22.800781 C 14.398438 23.039062 14.238281 23.199219 14 23.199219 Z M 20 22.800781 C 20 23.039062 19.839844 23.199219 19.601562 23.199219 L 15.601562 23.199219 C 15.359375 23.199219 15.199219 23.039062 15.199219 22.800781 L 15.199219 20.398438 L 20 20.398438 Z M 20 16.800781 L 17 16.800781 C 17.296875 16.421875 17.554688 16.011719 17.761719 15.574219 C 17.765625 15.570312 17.765625 15.566406 17.769531 15.566406 C 17.777344 15.546875 17.785156 15.527344 17.792969 15.511719 C 18.105469 14.847656 18.308594 14.121094 18.375 13.359375 C 18.375 13.355469 18.375 13.347656 18.375 13.34375 C 18.378906 13.308594 18.382812 13.273438 18.382812 13.234375 C 18.386719 13.21875 18.386719 13.199219 18.386719 13.183594 C 18.390625 13.15625 18.390625 13.125 18.394531 13.097656 C 18.394531 13.070312 18.394531 13.042969 18.394531 13.015625 C 18.398438 12.992188 18.398438 12.972656 18.398438 12.949219 C 18.398438 12.902344 18.398438 12.851562 18.398438 12.800781 C 18.398438 12.75 18.398438 12.699219 18.398438 12.648438 C 18.398438 12.632812 18.398438 12.617188 18.398438 12.605469 C 18.394531 12.566406 18.394531 12.527344 18.390625 12.492188 C 18.390625 12.476562 18.390625 12.464844 18.390625 12.449219 C 18.386719 12.40625 18.386719 12.363281 18.382812 12.324219 C 18.382812 12.316406 18.382812 12.308594 18.378906 12.300781 C 18.28125 11.03125 17.8125 9.789062 17 8.800781 L 20 8.800781 Z M 20 16.800781"/>
    <path d="M 13.359375 10.960938 L 12.398438 11.921875 L 12.398438 10 C 12.398438 9.761719 12.238281 9.601562 12 9.601562 C 11.761719 9.601562 11.601562 9.761719 11.601562 10 L 11.601562 12.800781 C 11.601562 12.816406 11.601562 12.828125 11.601562 12.84375 C 11.589844 12.957031 11.628906 13.070312 11.71875 13.160156 C 11.800781 13.238281 11.878906 13.28125 12 13.28125 C 12.121094 13.28125 12.199219 13.238281 12.28125 13.160156 L 13.921875 11.519531 C 14.078125 11.359375 14.078125 11.121094 13.921875 10.960938 C 13.761719 10.800781 13.519531 10.800781 13.359375 10.960938 Z M 13.359375 10.960938"/>
</svg>

<svg xmlns="http://www.w3.org/2000/svg" width="32" height="32" viewBox="0 0 24 24">
    <path d="M12 8c-2.64 0-4.8 2.16-4.8 4.8 0 2.641 2.16 4.802 4.8 4.802a4.79 4.79 0 0 0 4.8-4.801C16.8 10.16 14.64 8 12 8zm0 8.8c-2.2 0-4-1.8-4-4 0-2.198 1.8-4 4-4s4 1.802 4 4c0 2.2-1.8 4-4 4zm0 0"/>
    <path d="M21.2 8.398V5.602c0-.243-.16-.403-.4-.403V3.602c0-.68-.519-1.204-1.198-1.204H18.8v-.476C18.8 1.32 18.28.8 17.68.8h-.16c-.598 0-1.122.52-1.122 1.12v.477h-.796c-.16 0-.309.032-.442.082A1.179 1.179 0 0 0 14 1.602h-.8v-.48C13.2.52 12.68 0 12.077 0h-.156C11.32 0 10.8.52 10.8 1.121v.48H10c-.566 0-1.023.364-1.16.88a1.233 1.233 0 0 0-.442-.083h-.796v-.476C7.602 1.32 7.078.8 6.48.8h-.16C5.72.8 5.2 1.32 5.2 1.92v.477h-.802c-.68 0-1.199.524-1.199 1.204v1.597c-.238 0-.398.16-.398.403v2.796c0 .243.16.403.398.403v8c-.238 0-.398.16-.398.398V20c0 .238.16.398.398.398v2.403c0 .68.52 1.199 1.2 1.199h4c.312 0 .59-.11.8-.293.211.184.489.293.801.293h4c.313 0 .59-.11.8-.293.212.184.49.293.802.293h4c.68 0 1.199-.52 1.199-1.2v-2.402c.238 0 .398-.16.398-.398v-2.8c0-.24-.16-.4-.398-.4v-8c.238 0 .398-.16.398-.402zm-.802 11.204H3.602v-2h4.16a6.424 6.424 0 0 0 3.578 1.562c.004.004.012.004.02.004l.128.012c.012 0 .024 0 .035.004.04 0 .079.003.118.007h.043c.039.004.078.004.117.004.015 0 .027.004.043.004h.312c.016 0 .028-.004.043-.004.04 0 .078 0 .117-.004h.036c.043-.003.085-.007.128-.007.008-.004.016-.004.02-.004a6.327 6.327 0 0 0 3.738-1.578h4.16zm-7.683-1.247h-.008l-.121.012c-.008.004-.02.004-.027.004l-.102.012h-.039c-.031.004-.066.004-.098.008-.011 0-.027 0-.043.004-.03 0-.066 0-.097.003h-.36c-.03-.003-.066-.003-.097-.003-.016-.004-.032-.004-.043-.004-.032-.004-.067-.004-.098-.008h-.039l-.102-.012c-.007 0-.02 0-.027-.004l-.121-.012h-.008c-2.7-.347-4.812-2.636-4.883-5.41 0-.05-.004-.097-.004-.144 0-.051.004-.098.004-.145.07-2.773 2.184-5.062 4.883-5.41h.008c.039-.008.082-.012.121-.016.008 0 .02 0 .027-.003.036-.004.067-.004.102-.008.016 0 .027-.004.039-.004.031 0 .066-.004.098-.004.011-.004.027-.004.043-.004.03 0 .066-.004.097-.004h.043c.043-.004.09-.004.137-.004.047 0 .094 0 .137.004h.043c.03 0 .066.004.097.004.016 0 .032 0 .043.004.032 0 .067.004.098.004.012 0 .023.004.039.004.035.004.066.004.102.008.007.003.02.003.027.003.039.004.082.008.121.016h.008c2.7.348 4.812 2.637 4.883 5.41 0 .047.004.094.004.145 0 2.836-2.141 5.199-4.887 5.554zM16.238 8c-.125-.105-.254-.203-.383-.3a6.373 6.373 0 0 0-3.703-1.298c-.05 0-.101-.004-.152-.004-.05 0-.105.004-.156.004H11.8c-.04.004-.078.004-.117.004-.012.004-.024.004-.036.004-.043.004-.09.004-.128.008h-.02A6.332 6.332 0 0 0 7.762 8h-4.16V6h16.796v2zm.961-6.078c0-.16.16-.32.32-.32h.16c.16 0 .321.16.321.32v.476h-.8zm-1.597 1.277h4c.238 0 .398.16.398.403v1.597h-4.8V3.602c0-.243.16-.403.402-.403zm-4-2.078c0-.16.16-.32.32-.32h.156c.16 0 .32.16.32.32v.48h-.796zm-2 1.68c0-.242.16-.403.398-.403h4c.238 0 .398.16.398.403v2.398H9.602zM6 1.92c0-.16.16-.32.32-.32h.16c.16 0 .32.16.32.32v.477H6zm-2 1.68a.4.4 0 0 1 .398-.402h4c.243 0 .403.16.403.403v1.597H4zm0 5.2h3c-.2.254-.379.523-.54.804a6.35 6.35 0 0 0-.855 2.918v.024l-.003.11v.292c0 .024 0 .043.003.067v.082c.004.027.004.058.008.086v.05l.012.11v.015c.066.762.27 1.489.582 2.149l.023.058c.004 0 .004.004.008.008.207.434.465.848.762 1.227H4zm4.398 14.398h-4c-.238 0-.398-.16-.398-.398v-2.403h4.8v2.403c0 .238-.16.398-.402.398zm5.602 0h-4c-.238 0-.398-.16-.398-.398v-2.403h4.796v2.403c0 .238-.16.398-.398.398zm6-.398c0 .238-.16.398-.398.398h-4c-.243 0-.403-.16-.403-.398v-2.403H20zm0-6h-3a6.5 6.5 0 0 0 .762-1.227c.004-.004.004-.008.008-.008a6.348 6.348 0 0 0 .605-2.207v-.015c.004-.035.008-.07.008-.11.004-.015.004-.035.004-.05.004-.028.004-.059.008-.086v-.082c.003-.024.003-.043.003-.067v-.148-.153-.043c-.003-.039-.003-.078-.007-.113v-.043c-.004-.043-.004-.086-.008-.125 0-.008 0-.015-.004-.023-.098-1.27-.567-2.512-1.379-3.5h3zm0 0"/>
    <path d="M13.36 10.96l-.962.962V10c0-.238-.16-.398-.398-.398-.238 0-.398.16-.398.398v2.844a.386.386 0 0 0 .117.316c.082.078.16.121.281.121.121 0 .2-.043.281-.12l1.64-1.641a.391.391 0 0 0 0-.56.39.39 0 0 0-.562 0zm0 0"/>
</svg>
